static/img/svg/basketball.svg

<svg xmlns="http://www.w3.org/2000/svg" width="24" height="24"><path d="M12 2C6.486 2 2 6.486 2 12s4.486 10 10 10 10-4.486 10-10S17.514 2 12 2zM5.285 7.667C6.144 8.55 6.713 9.728 6.913 11H4.069a7.949 7.949 0 0 1 1.216-3.333zM4.069 13h2.828A6.05 6.05 0 0 1 5.2 16.193 7.938 7.938 0 0 1 4.069 13zM11 19.931a7.98 7.98 0 0 1-4.549-2.181C7.8 16.475 8.689 14.797 8.932 13H11v6.931zM11 11H8.936c-.224-1.862-1.068-3.598-2.362-4.862A7.976 7.976 0 0 1 11 4.069V11zm2-6.931a7.981 7.981 0 0 1 4.426 2.068c-1.294 1.265-2.138 3-2.361 4.862H13v-6.93zm0 15.862V13h2.068c.242 1.797 1.132 3.475 2.48 4.75A7.974 7.974 0 0 1 13 19.931zm5.8-3.738A6.047 6.047 0 0 1 17.103 13h2.828a7.938 7.938 0 0 1-1.131 3.193zM17.087 11c.2-1.272.77-2.45 1.628-3.333A7.935 7.935 0 0 1 19.931 11h-2.844z"/></svg>

<?xml version="1.0" encoding="utf-8"?>
<!-- Generator: Adobe Illustrator 16.0.0, SVG Export Plug-In . SVG Version: 6.00 Build 0)  -->
<!DOCTYPE svg PUBLIC "-//W3C//DTD SVG 1.1//EN" "http://www.w3.org/Graphics/SVG/1.1/DTD/svg11.dtd">
<svg version="1.1" id="Layer_1" xmlns="http://www.w3.org/2000/svg" xmlns:xlink="http://www.w3.org/1999/xlink" x="0px" y="0px"
	 width="24px" height="24px" viewBox="0 0 24 24" enable-background="new 0 0 24 24" xml:space="preserve">
<g>
	<path d="M12,2C6.486,2,2,6.486,2,12s4.486,10,10,10s10-4.486,10-10S17.514,2,12,2z M5.285,7.667C6.144,8.55,6.713,9.728,6.913,11
		H4.069C4.223,9.783,4.647,8.651,5.285,7.667z M4.069,13h2.828c-0.218,1.193-0.81,2.312-1.697,3.193
		C4.611,15.242,4.215,14.16,4.069,13z M11,19.931c-1.756-0.221-3.335-1.01-4.549-2.181C7.8,16.475,8.689,14.797,8.932,13H11V19.931z
		 M11,11H8.936C8.712,9.138,7.868,7.402,6.574,6.138C7.771,5.03,9.302,4.283,11,4.069V11z M13,4.069
		c1.698,0.214,3.229,0.961,4.426,2.068c-1.294,1.265-2.138,3-2.361,4.862H13V4.069z M13,19.931V13h2.068
		c0.242,1.797,1.132,3.475,2.48,4.75C16.335,18.921,14.756,19.71,13,19.931z M18.8,16.193c-0.888-0.882-1.479-2-1.697-3.193h2.828
		C19.785,14.16,19.389,15.242,18.8,16.193z M17.087,11c0.2-1.272,0.77-2.45,1.628-3.333c0.638,0.984,1.063,2.116,1.216,3.333H17.087
		z"/>
</g>
</svg>
